priv/static/svgs/icons_new/sport-formula-e.svg

<svg width="32" height="32" viewBox="0 0 32 32" fill="none" xmlns="http://www.w3.org/2000/svg">
<path d="M4 17.7335C4.02923 17.5444 4.13255 17.4617 4.21072 17.3678C5.9502 15.2892 8.15802 14.2636 10.8165 14.2622C15.2791 14.2601 14.2357 14.2594 18.6975 14.258C20.2038 14.258 21.7102 14.2615 23.2165 14.2559C23.9024 14.2538 24.4801 13.7333 24.561 13.0656C24.6324 12.475 24.298 12.0309 23.7263 11.9671C23.5808 11.951 23.432 11.9573 23.2851 11.9573C18.8002 11.9573 14.3152 11.9573 9.8302 11.9573H9.42847C9.38225 11.8046 9.49101 11.7471 9.55354 11.6778C11.3542 9.65383 13.5403 8.49368 16.2511 8.50068C18.9354 8.50699 21.6198 8.49228 24.3041 8.50629C26.1516 8.5161 27.59 9.72598 27.921 11.5244C28.1236 12.6242 27.9312 13.6751 27.4044 14.637C26.3175 16.6203 24.6875 17.73 22.4361 17.7314C14.5871 17.7377 12.2447 17.7342 4.39561 17.7342H4V17.7335Z" stroke="black" stroke-miterlimit="10" stroke-linecap="round"/>
<path d="M27.9428 20.0748C27.7191 20.4265 27.4398 20.699 27.1583 20.9653C25.4216 22.6123 23.4014 23.5097 21.0093 23.4999C16.4455 23.4817 18.0674 23.4964 13.5036 23.4929C11.7627 23.4915 10.2347 22.929 8.99683 21.6315C8.62161 21.2378 8.32116 20.7873 8.06422 20.3025C7.94458 20.0769 8.01119 20.0139 8.23279 20.0286C8.31164 20.0335 8.39117 20.0286 8.4707 20.0286C16.8738 20.0286 19.0911 20.0286 27.4941 20.03C27.6362 20.03 27.7844 20.002 27.9428 20.0741V20.0748Z" stroke="black" stroke-miterlimit="10" stroke-linecap="round"/>
</svg>

<svg width="32" height="32" viewBox="0 0 32 32" fill="none" xmlns="http://www.w3.org/2000/svg">
  <symbol id="item" viewBox="0 0 32 32" stroke-width="1" fill="none">
    <path d="M4 17.733c.03-.189.133-.271.21-.365 1.74-2.079 3.948-3.104 6.606-3.106 4.463-.002 3.42-.003 7.882-.004 1.506 0 3.012.004 4.518-.002a1.364 1.364 0 0 0 1.345-1.19c.071-.591-.263-1.035-.835-1.099-.145-.016-.294-.01-.44-.01H9.427c-.046-.152.063-.21.126-.28 1.8-2.023 3.986-3.183 6.697-3.176 2.684.006 5.369-.009 8.053.005 1.848.01 3.286 1.22 3.617 3.018.203 1.1.01 2.151-.517 3.113-1.087 1.983-2.716 3.093-4.968 3.094-7.849.007-10.191.003-18.04.003H4v0ZM27.943 20.075c-.224.352-.503.624-.785.89-1.736 1.647-3.757 2.545-6.149 2.535-4.564-.018-2.942-.004-7.505-.007-1.741-.002-3.27-.564-4.507-1.861a5.92 5.92 0 0 1-.933-1.33c-.12-.225-.053-.288.169-.273.079.005.158 0 .238 0l19.023.001c.142 0 .29-.028.449.044v0Z" stroke="currentColor" stroke-miterlimit="10" stroke-linecap="round"/>
  </symbol>
</svg>
